!!!OTL: Liebesklage
!!!ARE: Europa, Mitteleuropa, Deutschland
!!!SCT: A0208
!!!YEM: Copyright 1995, estate of Helmut Schaffrath.
**kern
*ICvox
*Ivox
!! Mixed meters:  4/2; 6/2
*M6/2
*k[b-e-]
*g:
{2g
=1
2g
2b-
2a
2g
=2
1dd
1dd}
=3
{1dd
=4
2.b-
4cc
2dd
2dd
2cc
2cc
=5
*M4/2
1.b-}
{2g
=6
2g
2b-
2a
2g
=7
1dd
1dd}
=8
{1dd
=9
*M6/2
2.b-
4cc
2dd
2dd
2cc
2cc
=10
*M4/2
1.b-}
{2b-
=11
2b-
2dd
2cc
2b-
=12
1a
1g}
=13
{1dd
=14
1cc
1a
=15
*M6/2
1.b-
2a
1g
=16
*M4/2
1fn
1r}
=17
{1dd
=18
*M6/2
2ffn
2ffn
2ee
2dd
2dd
2cc
=19
*M4/2
1dd
1b-}
=20
*M6/2
{2cc
2dd
2b-
2cc
1a
=21
1.g}
==
!!!AGN: Romanze, Ballade, Lied
!! Forster III. 1519 No. 17.
!!!ONB: ESAC (Essen Associative Code) Database: ALTDEU
!!!AMT: irregular
!!!AIN: vox
!!!EED: Helmut Schaffrath
!!!EEV: 1.0
*-
